X:1
T:Limerick is Beautiful
M:6/8
L:1/8
K:D
 D2- E| F2 FF-E D| A2 A B2 B,|B,-A, D D2 D| D3- D2 A| B2 BB-A F| d2 e d2 B|\
 A2 FF-E D| E3- E2 A| B2 BB-A F| d2 ed-c B| A2 FF-E D| E3 D2 E| F2 FF-E D|\
 A2 A B2 B,|B,-A, B, D2 D| D3||
